X: 09087
T: PANISH JIG #1
C: Bob McQuillen 29 Mar 91
B: Bob's Note Book 9 #87
R: jig
Z: 2018 John Chambers <jc:trillian.mit.edu>
M: 6/8
L: 1/8
K: D
B \
| ABA FAd | B2d AFA | dBd Adf | a2f edB |
| ABA FAd | B2d AFA | Bdf afe | fdd d2 :|
|: e \
| fef dfa | fdB Ade | fef dfa | fdf ede |
| fef dfa | fdB AFA | Bdf edB | Add d2 :|
%%begintext align
%% Paul Panish does the sound for the
%% Lamprey River Band and others
%% on occasion, and I really appreciate
%% all the TLC he puts into getting the
%% system to work just right. Thanks a lot,
%% Paul!
%%endtext

%%sep 1 1 500

%%sep 1 1 500

